X:4
T:Benton’s Dream
C: Traditional
R:Reel
M:4/4
L:1/8
K:D
"A"a6 e2|"G"g6 f2|"A"e3f edcB|A3c BA^GB|
"A"A2 F2 EFAB|"E"=cBcB AFEF|"A"A3A- "E"AcB^G|[1"A"A3A- Ace^g:|[2 "A"A6 ||
|:F2|"G"G2BG AGBG|AB-BA B2D2|G2BG AGBG|AB-BA B2B2|
"A"A3A- Ace^g|a2 a2 =gedc|A3c "E"BA^GB |[1 "A"A6 :|[2"A"A3A- Ace^g||["final" "A"A8 ||

